X: 14011
T: What shall I do to show how much I love her
%R: air, waltz, minuet
B: James Oswald "The Caledonian Pocket Companion" v.1 b.4 p.1
S: https://ia800501.us.archive.org/18/items/caledonianpocket01rugg/caledonianpocket01rugg_bw.pdf
Z: 2020 John Chambers <jc:trillian.mit.edu>
M: 3/4
L: 1/8
K: Dm
%%slurgraces 1
%%graceslurs 1
|: "_Slow"\
f2 {ed^cd}d2 (e3/f//g//) | {d}^c3 e d2 | {ef}g2 {g}fe {g}f(e/d/) | {d}e4 A2 |\
a2 {d^c}d2 e2 | f2 A2 (d^c) | d>e {f}e3 d | d6 ::\
c2 {B}A2 c2 | f3 c {c}d2 |
A>B c2 (BA) | {A}TG4 F2 | A2 d2 (c=B) | c>d e2 ^G2 |\
A=B {c}TB3A | A4 z2 | d2 {c}=B2 e2 | {d}^c2 (BA)(fe) |\
d2 (gf)(ed) | {d}e4 A2 |
e>f g2 {g}fe | f>g a2 {d}^c2 | d>e {f}Te3 d | d6 ::\
f>e (3(dba) (3(gfe) | (d>^c) (3(gec) d2 | {ef}g2 (f/d/b/a/ g/f/e/)d/ | (d>^c) (d/c/d/e/) A2 |
af ed ^cd/e/ | f>A A>=B B>^c | d({ed^c}d/e/) {de}Te3d | d6 ::\
c2 A>B (3(cde) | f>g (3(agf) (3(cdB) | {B}A>B (c/A/)f (d/F/)B |
{A}TG4 F2 | A>c {c}=B3 d | (c/=B/c/d/) {A}^G3A | {g}f(3(e/d/c/) {AB}TB3 A | A6 | d>c (3=Bgf (e/_b/g/e/) | {d}^c2 {B}A2 (fe) |
d2 (b>a) (g/f/e/d/) | {d}e4 A2 |\
e3/(f//g//) fA .e/(e/f/g/) | (f/d/g/e/) (a/f/e/f/ g/e/d/)^c/ (d/A/(3B//g//e//) | {de}Te3 d | d6 :|
[M:6/8]|: "_Brisk"\
fed T^c2d | efg Tf2e | afd A2d | ge^c d3 ::\
cAc def | cAF TG2F | Ad=B ceA |
d=B^G A2d | =B2e ^cAe | fed (^c/d/e)A |\
gab a^cd | gfe fga | A2d ^ceg | fa^c | d3 :|

